Newaita-dark/.places-mint/24/user-trash.svg

<?xml version="1.0" encoding="UTF-8"?>
<svg xmlns="http://www.w3.org/2000/svg" xmlns:xlink="http://www.w3.org/1999/xlink" width="24px" height="24px" viewBox="0 0 24 24" version="1.1">
<defs>
<linearGradient id="linear0" gradientUnits="userSpaceOnUse" x1="254" y1="233.5" x2="254" y2="254.666672" gradientTransform="matrix(0.0468795,0,0,0.0468795,-0.0000028613,10.079089)">
<stop offset="0" style="stop-color:rgb(0%,0%,0%);stop-opacity:0.27451;"/>
<stop offset="1" style="stop-color:rgb(0%,0%,0%);stop-opacity:0;"/>
</linearGradient>
<radialGradient id="radial0" gradientUnits="userSpaceOnUse" cx="450.908936" cy="189.579361" fx="450.908936" fy="189.579361" r="21.166656" gradientTransform="matrix(0.000000130628,-0.0585994,-0.105479,-0.0000000761539,37.113424,47.696499)">
<stop offset="0" style="stop-color:rgb(0%,0%,0%);stop-opacity:0.313726;"/>
<stop offset="0.222222" style="stop-color:rgb(0%,0%,0%);stop-opacity:0.27451;"/>
<stop offset="1" style="stop-color:rgb(0%,0%,0%);stop-opacity:0;"/>
</radialGradient>
<radialGradient id="radial1" gradientUnits="userSpaceOnUse" cx="450.908936" cy="189.579361" fx="450.908936" fy="189.579361" r="21.166656" gradientTransform="matrix(-0.000000130628,0.0585994,0.105479,0.0000000761539,-13.298649,-5.645609)">
<stop offset="0" style="stop-color:rgb(0%,0%,0%);stop-opacity:0.313726;"/>
<stop offset="0.222222" style="stop-color:rgb(0%,0%,0%);stop-opacity:0.27451;"/>
<stop offset="1" style="stop-color:rgb(0%,0%,0%);stop-opacity:0;"/>
</radialGradient>
<radialGradient id="radial2" gradientUnits="userSpaceOnUse" cx="450.908936" cy="189.579361" fx="450.908936" fy="189.579361" r="21.166656" gradientTransform="matrix(-0.000000130628,-0.0585994,0.105479,-0.0000000761539,-13.298649,47.696499)">
<stop offset="0" style="stop-color:rgb(0%,0%,0%);stop-opacity:0.313726;"/>
<stop offset="0.222222" style="stop-color:rgb(0%,0%,0%);stop-opacity:0.27451;"/>
<stop offset="1" style="stop-color:rgb(0%,0%,0%);stop-opacity:0;"/>
</radialGradient>
<radialGradient id="radial3" gradientUnits="userSpaceOnUse" cx="450.908936" cy="189.579361" fx="450.908936" fy="189.579361" r="21.166656" gradientTransform="matrix(0.000000130628,0.0585994,-0.105479,0.0000000761539,37.113423,-5.64561)">
<stop offset="0" style="stop-color:rgb(0%,0%,0%);stop-opacity:0.313726;"/>
<stop offset="0.222222" style="stop-color:rgb(0%,0%,0%);stop-opacity:0.27451;"/>
<stop offset="1" style="stop-color:rgb(0%,0%,0%);stop-opacity:0;"/>
</radialGradient>
<linearGradient id="linear1" gradientUnits="userSpaceOnUse" x1="275.166656" y1="233.5" x2="275.166656" y2="-147.5" gradientTransform="matrix(0.0468795,0,0,0.0468795,0,10.079087)">
<stop offset="0" style="stop-color:rgb(34.509805%,34.509805%,34.509805%);stop-opacity:0;"/>
<stop offset="1" style="stop-color:rgb(98.039216%,98.039216%,98.039216%);stop-opacity:0.196078;"/>
</linearGradient>
</defs>
<g id="surface1">
<path style=" stroke:none;fill-rule:nonzero;fill:url(#linear0);" d="M 6.449219 21.027344 L 17.363281 21.027344 L 17.363281 22.019531 L 6.449219 22.019531 Z M 6.449219 21.027344 "/>
<path style=" stroke:none;fill-rule:nonzero;fill:url(#radial0);" d="M 17.363281 21.027344 L 19.347656 21.027344 L 19.347656 20.03125 L 17.363281 20.03125 Z M 17.363281 21.027344 "/>
<path style=" stroke:none;fill-rule:nonzero;fill:url(#radial1);" d="M 6.449219 21.027344 L 4.464844 21.027344 L 4.464844 22.019531 L 6.449219 22.019531 Z M 6.449219 21.027344 "/>
<path style=" stroke:none;fill-rule:nonzero;fill:url(#radial2);" d="M 6.449219 21.027344 L 4.464844 21.027344 L 4.464844 20.03125 L 6.449219 20.03125 Z M 6.449219 21.027344 "/>
<path style=" stroke:none;fill-rule:nonzero;fill:url(#radial3);" d="M 17.363281 21.027344 L 19.347656 21.027344 L 19.347656 22.019531 L 17.363281 22.019531 Z M 17.363281 21.027344 "/>
<path style=" stroke:none;fill-rule:nonzero;fill:rgb(68.235296%,83.529413%,50.588238%);fill-opacity:1;" d="M 5.457031 5.148438 L 18.355469 5.148438 C 18.90625 5.148438 19.347656 5.59375 19.347656 6.140625 L 19.347656 20.03125 C 19.347656 20.582031 18.90625 21.027344 18.355469 21.027344 L 5.457031 21.027344 C 4.910156 21.027344 4.464844 20.582031 4.464844 20.03125 L 4.464844 6.140625 C 4.464844 5.59375 4.910156 5.148438 5.457031 5.148438 Z M 5.457031 5.148438 "/>
<path style=" stroke:none;fill-rule:nonzero;fill:rgb(0%,0%,0%);fill-opacity:0.196078;" d="M 4.464844 18.917969 L 19.347656 18.917969 L 19.347656 19.039062 L 4.464844 19.039062 Z M 4.464844 18.917969 "/>
<path style=" stroke:none;fill-rule:nonzero;fill:rgb(90.196079%,90.196079%,90.196079%);fill-opacity:0.588235;" d="M 4.464844 19.039062 L 19.347656 19.039062 L 19.347656 19.164062 L 4.464844 19.164062 Z M 4.464844 19.039062 "/>
<path style=" stroke:none;fill-rule:nonzero;fill:rgb(12.941177%,12.941177%,12.941177%);fill-opacity:0.992157;" d="M 4.464844 18.980469 L 19.347656 18.980469 L 19.347656 19.101562 L 4.464844 19.101562 Z M 4.464844 18.980469 "/>
<path style=" stroke:none;fill-rule:nonzero;fill:url(#linear1);" d="M 5.457031 5.148438 L 18.355469 5.148438 C 18.90625 5.148438 19.347656 5.59375 19.347656 6.140625 L 19.347656 20.03125 C 19.347656 20.582031 18.90625 21.027344 18.355469 21.027344 L 5.457031 21.027344 C 4.910156 21.027344 4.464844 20.582031 4.464844 20.03125 L 4.464844 6.140625 C 4.464844 5.59375 4.910156 5.148438 5.457031 5.148438 Z M 5.457031 5.148438 "/>
<path style=" stroke:none;fill-rule:nonzero;fill:rgb(54.509807%,76.47059%,29.019609%);fill-opacity:1;" d="M 11.90625 7.132812 C 12.457031 7.132812 12.898438 7.578125 12.898438 8.125 L 12.898438 17.054688 C 12.898438 17.605469 12.457031 18.046875 11.90625 18.046875 C 11.359375 18.046875 10.914062 17.605469 10.914062 17.054688 L 10.914062 8.125 C 10.914062 7.578125 11.359375 7.132812 11.90625 7.132812 Z M 11.90625 7.132812 "/>
<path style=" stroke:none;fill-rule:nonzero;fill:rgb(27.058825%,35.294119%,39.215687%);fill-opacity:1;" d="M 11.90625 2.171875 C 12.457031 2.171875 12.898438 2.617188 12.898438 3.164062 C 12.898438 3.710938 12.457031 4.15625 11.90625 4.15625 C 11.359375 4.15625 10.914062 3.710938 10.914062 3.164062 C 10.914062 2.617188 11.359375 2.171875 11.90625 2.171875 Z M 11.90625 2.171875 "/>
<path style=" stroke:none;fill-rule:nonzero;fill:rgb(14.901961%,65.098041%,60.392159%);fill-opacity:1;" d="M 11.90625 2.171875 C 12.457031 2.171875 12.898438 2.617188 12.898438 3.164062 C 12.898438 3.710938 12.457031 4.15625 11.90625 4.15625 C 11.359375 4.15625 10.914062 3.710938 10.914062 3.164062 C 10.914062 2.617188 11.359375 2.171875 11.90625 2.171875 Z M 11.90625 2.171875 "/>
<path style="fill-rule:nonzero;fill:rgb(54.509807%,76.47059%,29.019609%);fill-opacity:1;stroke-width:3;stroke-linecap:round;stroke-linejoin:miter;stroke:rgb(12.941177%,12.941177%,12.941177%);stroke-opacity:1;stroke-miterlimit:4;" d="M 253.975747 -168.671091 C 265.724625 -168.671091 275.140392 -159.171998 275.140392 -147.506445 C 275.140392 -135.840893 265.724625 -126.3418 253.975747 -126.3418 C 242.310194 -126.3418 232.811101 -135.840893 232.811101 -147.506445 C 232.811101 -159.171998 242.310194 -168.671091 253.975747 -168.671091 Z M 253.975747 -168.671091 " transform="matrix(0.0468795,0,0,0.0468795,0,10.079087)"/>
<path style="fill-rule:nonzero;fill:rgb(9.803922%,72.941178%,61.176473%);fill-opacity:1;stroke-width:3;stroke-linecap:round;stroke-linejoin:miter;stroke:rgb(12.941177%,12.941177%,12.941177%);stroke-opacity:1;stroke-miterlimit:4;" d="M 105.823228 -147.506445 L 402.128265 -147.506445 C 413.877143 -147.506445 423.292911 -138.007352 423.292911 -126.3418 C 423.292911 -114.676247 413.877143 -105.177154 402.128265 -105.177154 L 105.823228 -105.177154 C 94.157675 -105.177154 84.658582 -114.676247 84.658582 -126.3418 C 84.658582 -138.007352 94.157675 -147.506445 105.823228 -147.506445 Z M 105.823228 -147.506445 " transform="matrix(0.0468795,0,0,0.0468795,0,10.079087)"/>
<path style="fill-rule:nonzero;fill:rgb(68.235296%,83.529413%,50.588238%);fill-opacity:1;stroke-width:3;stroke-linecap:round;stroke-linejoin:miter;stroke:rgb(12.941177%,12.941177%,12.941177%);stroke-opacity:1;stroke-miterlimit:4;" d="M 105.823228 -147.506445 L 402.128265 -147.506445 C 413.877143 -147.506445 423.292911 -138.007352 423.292911 -126.3418 C 423.292911 -114.676247 413.877143 -105.177154 402.128265 -105.177154 L 105.823228 -105.177154 C 94.157675 -105.177154 84.658582 -114.676247 84.658582 -126.3418 C 84.658582 -138.007352 94.157675 -147.506445 105.823228 -147.506445 Z M 105.823228 -147.506445 " transform="matrix(0.0468795,0,0,0.0468795,0,10.079087)"/>
<path style=" stroke:none;fill-rule:nonzero;fill:rgb(54.509807%,76.47059%,29.019609%);fill-opacity:1;" d="M 7.9375 7.132812 C 8.484375 7.132812 8.929688 7.578125 8.929688 8.125 L 8.929688 17.054688 C 8.929688 17.605469 8.484375 18.046875 7.9375 18.046875 C 7.390625 18.046875 6.945312 17.605469 6.945312 17.054688 L 6.945312 8.125 C 6.945312 7.578125 7.390625 7.132812 7.9375 7.132812 Z M 7.9375 7.132812 "/>
<path style=" stroke:none;fill-rule:nonzero;fill:rgb(54.509807%,76.47059%,29.019609%);fill-opacity:1;" d="M 15.875 7.132812 C 16.425781 7.132812 16.867188 7.578125 16.867188 8.125 L 16.867188 17.054688 C 16.867188 17.605469 16.425781 18.046875 15.875 18.046875 C 15.328125 18.046875 14.882812 17.605469 14.882812 17.054688 L 14.882812 8.125 C 14.882812 7.578125 15.328125 7.132812 15.875 7.132812 Z M 15.875 7.132812 "/>
<path style=" stroke:none;fill-rule:nonzero;fill:rgb(90.196079%,90.196079%,90.196079%);fill-opacity:0.588235;" d="M 4.960938 3.164062 C 4.410156 3.164062 3.96875 3.605469 3.96875 4.15625 L 3.96875 4.28125 C 3.96875 3.730469 4.410156 3.289062 4.960938 3.289062 L 18.851562 3.289062 C 19.402344 3.289062 19.84375 3.730469 19.84375 4.28125 L 19.84375 4.15625 C 19.84375 3.605469 19.402344 3.164062 18.851562 3.164062 Z M 4.960938 3.164062 "/>
<path style=" stroke:none;fill-rule:nonzero;fill:rgb(0%,0%,0%);fill-opacity:0.196078;" d="M 4.960938 5.148438 C 4.410156 5.148438 3.96875 4.707031 3.96875 4.15625 L 3.96875 4.03125 C 3.96875 4.582031 4.410156 5.023438 4.960938 5.023438 L 18.851562 5.023438 C 19.402344 5.023438 19.84375 4.582031 19.84375 4.03125 L 19.84375 4.15625 C 19.84375 4.707031 19.402344 5.148438 18.851562 5.148438 Z M 4.960938 5.148438 "/>
<path style=" stroke:none;fill-rule:nonzero;fill:rgb(12.941177%,12.941177%,12.941177%);fill-opacity:1;" d="M 4.960938 3.09375 C 4.375 3.09375 3.898438 3.570312 3.898438 4.15625 C 3.898438 4.742188 4.375 5.21875 4.960938 5.21875 L 18.851562 5.21875 C 19.441406 5.21875 19.914062 4.742188 19.914062 4.15625 C 19.914062 3.570312 19.441406 3.09375 18.851562 3.09375 Z M 4.960938 3.234375 L 18.851562 3.234375 C 19.367188 3.234375 19.773438 3.644531 19.773438 4.15625 C 19.773438 4.667969 19.367188 5.078125 18.851562 5.078125 L 4.960938 5.078125 C 4.449219 5.078125 4.039062 4.667969 4.039062 4.15625 C 4.039062 3.644531 4.449219 3.234375 4.960938 3.234375 Z M 4.960938 3.234375 "/>
<path style=" stroke:none;fill-rule:nonzero;fill:rgb(90.196079%,90.196079%,90.196079%);fill-opacity:0.588235;" d="M 5.457031 5.148438 C 4.90625 5.148438 4.464844 5.589844 4.464844 6.140625 L 4.464844 6.265625 C 4.464844 5.714844 4.90625 5.273438 5.457031 5.273438 L 18.355469 5.273438 C 18.90625 5.273438 19.347656 5.714844 19.347656 6.265625 L 19.347656 6.140625 C 19.347656 5.589844 18.90625 5.148438 18.355469 5.148438 Z M 5.457031 5.148438 "/>
<path style=" stroke:none;fill-rule:nonzero;fill:rgb(0%,0%,0%);fill-opacity:0.196078;" d="M 5.457031 21.027344 C 4.90625 21.027344 4.464844 20.582031 4.464844 20.03125 L 4.464844 19.910156 C 4.464844 20.457031 4.90625 20.902344 5.457031 20.902344 L 18.355469 20.902344 C 18.90625 20.902344 19.347656 20.457031 19.347656 19.910156 L 19.347656 20.03125 C 19.347656 20.582031 18.90625 21.027344 18.355469 21.027344 Z M 5.457031 21.027344 "/>
<path style="fill:none;stroke-width:3;stroke-linecap:round;stroke-linejoin:miter;stroke:rgb(12.941177%,12.941177%,12.941177%);stroke-opacity:1;stroke-miterlimit:4;" d="M 116.40555 -105.177154 L 391.545943 -105.177154 C 403.294821 -105.177154 412.710588 -95.678061 412.710588 -84.012509 L 412.710588 212.292529 C 412.710588 224.041407 403.294821 233.5405 391.545943 233.5405 L 116.40555 233.5405 C 104.739998 233.5405 95.240905 224.041407 95.240905 212.292529 L 95.240905 -84.012509 C 95.240905 -95.678061 104.739998 -105.177154 116.40555 -105.177154 Z M 116.40555 -105.177154 " transform="matrix(0.0468795,0,0,0.0468795,0,10.079087)"/>
<path style=" stroke:none;fill-rule:nonzero;fill:rgb(100%,100%,100%);fill-opacity:0.392157;" d="M 6.945312 17.078125 L 6.945312 17.242188 C 6.945312 17.792969 7.386719 18.234375 7.9375 18.234375 C 8.488281 18.234375 8.929688 17.792969 8.929688 17.242188 L 8.929688 17.078125 C 8.929688 17.628906 8.488281 18.070312 7.9375 18.070312 C 7.386719 18.070312 6.945312 17.628906 6.945312 17.078125 Z M 10.914062 17.078125 L 10.914062 17.242188 C 10.914062 17.792969 11.359375 18.234375 11.90625 18.234375 C 12.457031 18.234375 12.898438 17.792969 12.898438 17.242188 L 12.898438 17.078125 C 12.898438 17.628906 12.457031 18.070312 11.90625 18.070312 C 11.359375 18.070312 10.914062 17.628906 10.914062 17.078125 Z M 14.882812 17.078125 L 14.882812 17.242188 C 14.882812 17.792969 15.328125 18.234375 15.875 18.234375 C 16.425781 18.234375 16.867188 17.792969 16.867188 17.242188 L 16.867188 17.078125 C 16.867188 17.628906 16.425781 18.070312 15.875 18.070312 C 15.328125 18.070312 14.882812 17.628906 14.882812 17.078125 Z M 14.882812 17.078125 "/>
<path style=" stroke:none;fill-rule:nonzero;fill:rgb(12.941177%,12.941177%,12.941177%);fill-opacity:1;" d="M 11.90625 7.0625 C 11.320312 7.0625 10.84375 7.539062 10.84375 8.125 L 10.84375 17.054688 C 10.84375 17.644531 11.320312 18.117188 11.90625 18.117188 C 12.496094 18.117188 12.96875 17.644531 12.96875 17.054688 L 12.96875 8.125 C 12.96875 7.539062 12.496094 7.0625 11.90625 7.0625 Z M 11.90625 7.203125 C 12.417969 7.203125 12.828125 7.613281 12.828125 8.125 L 12.828125 17.054688 C 12.828125 17.566406 12.417969 17.976562 11.90625 17.976562 C 11.394531 17.976562 10.984375 17.566406 10.984375 17.054688 L 10.984375 8.125 C 10.984375 7.613281 11.394531 7.203125 11.90625 7.203125 Z M 11.90625 7.203125 "/>
<path style=" stroke:none;fill-rule:nonzero;fill:rgb(12.941177%,12.941177%,12.941177%);fill-opacity:1;" d="M 7.9375 7.0625 C 7.351562 7.0625 6.875 7.539062 6.875 8.125 L 6.875 17.054688 C 6.875 17.644531 7.351562 18.117188 7.9375 18.117188 C 8.527344 18.117188 9 17.644531 9 17.054688 L 9 8.125 C 9 7.539062 8.527344 7.0625 7.9375 7.0625 Z M 7.9375 7.203125 C 8.449219 7.203125 8.859375 7.613281 8.859375 8.125 L 8.859375 17.054688 C 8.859375 17.566406 8.449219 17.976562 7.9375 17.976562 C 7.425781 17.976562 7.015625 17.566406 7.015625 17.054688 L 7.015625 8.125 C 7.015625 7.613281 7.425781 7.203125 7.9375 7.203125 Z M 7.9375 7.203125 "/>
<path style=" stroke:none;fill-rule:nonzero;fill:rgb(13.725491%,13.725491%,13.725491%);fill-opacity:0.235294;" d="M 7.9375 7.132812 C 7.386719 7.132812 6.945312 7.574219 6.945312 8.125 L 6.945312 8.3125 C 6.945312 7.761719 7.386719 7.320312 7.9375 7.320312 C 8.488281 7.320312 8.929688 7.761719 8.929688 8.3125 L 8.929688 8.125 C 8.929688 7.574219 8.488281 7.132812 7.9375 7.132812 Z M 11.90625 7.132812 C 11.359375 7.132812 10.914062 7.574219 10.914062 8.125 L 10.914062 8.3125 C 10.914062 7.761719 11.359375 7.320312 11.90625 7.320312 C 12.457031 7.320312 12.898438 7.761719 12.898438 8.3125 L 12.898438 8.125 C 12.898438 7.574219 12.457031 7.132812 11.90625 7.132812 Z M 15.875 7.132812 C 15.328125 7.132812 14.882812 7.574219 14.882812 8.125 L 14.882812 8.3125 C 14.882812 7.761719 15.328125 7.320312 15.875 7.320312 C 16.425781 7.320312 16.867188 7.761719 16.867188 8.3125 L 16.867188 8.125 C 16.867188 7.574219 16.425781 7.132812 15.875 7.132812 Z M 15.875 7.132812 "/>
<path style=" stroke:none;fill-rule:nonzero;fill:rgb(12.941177%,12.941177%,12.941177%);fill-opacity:1;" d="M 15.875 7.0625 C 15.289062 7.0625 14.8125 7.539062 14.8125 8.125 L 14.8125 17.054688 C 14.8125 17.644531 15.289062 18.117188 15.875 18.117188 C 16.464844 18.117188 16.9375 17.644531 16.9375 17.054688 L 16.9375 8.125 C 16.9375 7.539062 16.464844 7.0625 15.875 7.0625 Z M 15.875 7.203125 C 16.386719 7.203125 16.796875 7.613281 16.796875 8.125 L 16.796875 17.054688 C 16.796875 17.566406 16.386719 17.976562 15.875 17.976562 C 15.363281 17.976562 14.953125 17.566406 14.953125 17.054688 L 14.953125 8.125 C 14.953125 7.613281 15.363281 7.203125 15.875 7.203125 Z M 15.875 7.203125 "/>
</g>
</svg>

<svg xmlns="http://www.w3.org/2000/svg" width="24" height="24"><defs><linearGradient id="a" gradientUnits="userSpaceOnUse" x1="254" y1="233.5" x2="254" y2="254.667" gradientTransform="matrix(.04688 0 0 .04688 0 10.08)"><stop offset="0" stop-opacity=".275"/><stop offset="1" stop-opacity="0"/></linearGradient><radialGradient id="b" gradientUnits="userSpaceOnUse" cx="450.909" cy="189.579" fx="450.909" fy="189.579" r="21.167" gradientTransform="matrix(0 -.0586 -.10548 0 37.113 47.696)"><stop offset="0" stop-opacity=".314"/><stop offset=".222" stop-opacity=".275"/><stop offset="1" stop-opacity="0"/></radialGradient><radialGradient id="c" gradientUnits="userSpaceOnUse" cx="450.909" cy="189.579" fx="450.909" fy="189.579" r="21.167" gradientTransform="matrix(0 .0586 .10548 0 -13.299 -5.646)"><stop offset="0" stop-opacity=".314"/><stop offset=".222" stop-opacity=".275"/><stop offset="1" stop-opacity="0"/></radialGradient><radialGradient id="d" gradientUnits="userSpaceOnUse" cx="450.909" cy="189.579" fx="450.909" fy="189.579" r="21.167" gradientTransform="matrix(0 -.0586 .10548 0 -13.299 47.696)"><stop offset="0" stop-opacity=".314"/><stop offset=".222" stop-opacity=".275"/><stop offset="1" stop-opacity="0"/></radialGradient><radialGradient id="e" gradientUnits="userSpaceOnUse" cx="450.909" cy="189.579" fx="450.909" fy="189.579" r="21.167" gradientTransform="matrix(0 .0586 -.10548 0 37.113 -5.646)"><stop offset="0" stop-opacity=".314"/><stop offset=".222" stop-opacity=".275"/><stop offset="1" stop-opacity="0"/></radialGradient><linearGradient id="f" gradientUnits="userSpaceOnUse" x1="275.167" y1="233.5" x2="275.167" y2="-147.5" gradientTransform="matrix(.04688 0 0 .04688 0 10.08)"><stop offset="0" stop-color="#585858" stop-opacity="0"/><stop offset="1" stop-color="#fafafa" stop-opacity=".196"/></linearGradient><linearGradient id="g" gradientUnits="userSpaceOnUse" x1="254" y1="-168.667" x2="254" y2="-126.333" gradientTransform="matrix(.04688 0 0 .04688 0 10.08)"><stop offset="0" stop-color="#585858" stop-opacity="0"/><stop offset="1" stop-color="#fafafa" stop-opacity=".196"/></linearGradient><linearGradient id="h" gradientUnits="userSpaceOnUse" x1="254" y1="233.5" x2="254" y2="-147.5"><stop offset="0" stop-color="#585858" stop-opacity="0"/><stop offset="1" stop-color="#fafafa" stop-opacity=".196"/></linearGradient><linearGradient id="i" gradientUnits="userSpaceOnUse" x1="254" y1="-147.5" x2="254" y2="233.5" gradientTransform="matrix(.04688 0 0 .04688 0 10.08)"><stop offset="0" stop-color="#585858" stop-opacity="0"/><stop offset="1" stop-color="#fafafa" stop-opacity=".196"/></linearGradient><linearGradient id="j" gradientUnits="userSpaceOnUse" x1="169.333" y1="-147.5" x2="169.333" y2="233.5" gradientTransform="matrix(.04688 0 0 .04688 0 10.08)"><stop offset="0" stop-color="#585858" stop-opacity="0"/><stop offset="1" stop-color="#fafafa" stop-opacity=".196"/></linearGradient></defs><path d="M6.45 21.027h10.913v.993H6.45zm0 0" fill="url(#a)"/><path d="M17.363 21.027h1.985v-.996h-1.985zm0 0" fill="url(#b)"/><path d="M6.45 21.027H4.464v.993h1.984zm0 0" fill="url(#c)"/><path d="M6.45 21.027H4.464v-.996h1.984zm0 0" fill="url(#d)"/><path d="M17.363 21.027h1.985v.993h-1.985zm0 0" fill="url(#e)"/><path d="M5.457 5.148h12.898c.551 0 .993.446.993.993v13.89c0 .551-.442.996-.993.996H5.457a.994.994 0 0 1-.992-.996V6.141c0-.547.445-.993.992-.993zm0 0" fill="#9ccc65"/><path d="M4.465 18.918h14.883v.121H4.465zm0 0" fill-opacity=".196"/><path d="M4.465 19.04h14.883v.124H4.465zm0 0" fill="#e6e6e6" fill-opacity=".588"/><path d="M4.465 18.98h14.883v.122H4.465zm0 0" fill="#212121" fill-opacity=".992"/><path d="M5.457 5.148h12.898c.551 0 .993.446.993.993v13.89c0 .551-.442.996-.993.996H5.457a.994.994 0 0 1-.992-.996V6.141c0-.547.445-.993.992-.993zm0 0" fill="url(#f)"/><path d="M11.906 7.133c.551 0 .992.445.992.992v8.93c0 .55-.441.992-.992.992a.991.991 0 0 1-.992-.992v-8.93c0-.547.445-.992.992-.992zm0 0M11.906 2.172a.991.991 0 1 1 .002 1.982.991.991 0 0 1-.002-1.982zm0 0" fill="#7cb342"/><path d="M11.906 2.172a.991.991 0 1 1 .002 1.982.991.991 0 0 1-.002-1.982zm0 0" fill="url(#g)"/><path d="M11.906 2.102a1.064 1.064 0 1 0 .002 2.127 1.064 1.064 0 0 0-.002-2.127zm0 .14c.512 0 .922.41.922.922s-.41.922-.922.922a.919.919 0 0 1-.922-.922c0-.512.41-.922.922-.922zm0 0" fill="#212121"/><path d="M4.96 3.164h13.892a.991.991 0 1 1 0 1.984H4.96a.994.994 0 0 1-.992-.992c0-.547.445-.992.992-.992zm0 0" fill="#9ccc65" stroke-width=".14064" stroke-linecap="round" stroke="#212121"/><path d="M105.823-147.506h296.305c11.75 0 21.165 9.499 21.165 21.164 0 11.666-9.416 21.165-21.165 21.165H105.823c-11.665 0-21.164-9.5-21.164-21.165s9.499-21.164 21.164-21.164zm0 0" transform="matrix(.04688 0 0 .04688 0 10.08)" fill="url(#h)" stroke-width="3" stroke-linecap="round" stroke="#212121"/><path d="M7.938 7.133c.546 0 .992.445.992.992v8.93a.991.991 0 1 1-1.985 0v-8.93c0-.547.446-.992.992-.992zm0 0" fill="#7cb342"/><path d="M15.875 7.133c.55 0 .992.445.992.992v8.93c0 .55-.441.992-.992.992a.991.991 0 0 1-.992-.992v-8.93c0-.547.445-.992.992-.992zm0 0" fill="#43a047"/><path d="M4.96 3.164a.989.989 0 0 0-.991.992v.125c0-.55.441-.992.992-.992h13.89c.551 0 .993.441.993.992v-.125a.989.989 0 0 0-.992-.992zm0 0" fill="#e6e6e6" fill-opacity=".588"/><path d="M4.96 5.148a.989.989 0 0 1-.991-.992v-.125c0 .551.441.992.992.992h13.89c.551 0 .993-.441.993-.992v.125c0 .551-.442.992-.992.992zm0 0" fill-opacity=".196"/><path d="M4.96 3.094a1.064 1.064 0 0 0 0 2.125h13.892c.59 0 1.062-.477 1.062-1.063s-.473-1.062-1.062-1.062zm0 .14h13.892c.515 0 .921.41.921.922a.916.916 0 0 1-.921.922H4.96a.919.919 0 0 1-.922-.922c0-.511.41-.922.922-.922zm0 0" fill="#333"/><path d="M5.457 5.148a.989.989 0 0 0-.992.993v.125c0-.551.441-.993.992-.993h12.898c.551 0 .993.442.993.993V6.14a.989.989 0 0 0-.993-.993zm0 0" fill="#e6e6e6" fill-opacity=".588"/><path d="M5.457 21.027a.992.992 0 0 1-.992-.996v-.12c0 .546.441.991.992.991h12.898c.551 0 .993-.445.993-.992v.121c0 .551-.442.996-.993.996zm0 0" fill-opacity=".196"/><path d="M5.457 5.148h12.898c.551 0 .993.446.993.993v13.89c0 .551-.442.996-.993.996H5.457a.994.994 0 0 1-.992-.996V6.141c0-.547.445-.993.992-.993zm0 0" fill="none" stroke-width=".14064" stroke-linecap="round" stroke="#212121"/><path d="M11.906 7.133c.551 0 .992.445.992.992v8.93c0 .55-.441.992-.992.992a.991.991 0 0 1-.992-.992v-8.93c0-.547.445-.992.992-.992zm0 0" fill="url(#i)"/><path d="M11.906 7.063c-.586 0-1.062.476-1.062 1.062v8.93c0 .59.476 1.062 1.062 1.062.59 0 1.063-.472 1.063-1.062v-8.93c0-.586-.473-1.063-1.063-1.063zm0 .14c.512 0 .922.41.922.922v8.93c0 .511-.41.922-.922.922a.919.919 0 0 1-.922-.922v-8.93c0-.512.41-.922.922-.922zm0 0" fill="#212121"/><path d="M7.938 7.133c.546 0 .992.445.992.992v8.93a.991.991 0 1 1-1.985 0v-8.93c0-.547.446-.992.992-.992zm0 0" fill="url(#j)"/><path d="M7.938 7.063c-.586 0-1.063.476-1.063 1.062v8.93c0 .59.477 1.062 1.063 1.062.59 0 1.062-.472 1.062-1.062v-8.93c0-.586-.473-1.063-1.063-1.063zm0 .14c.511 0 .921.41.921.922v8.93c0 .511-.41.922-.921.922a.919.919 0 0 1-.922-.922v-8.93c0-.512.41-.922.921-.922zm0 0" fill="#212121"/><path d="M15.875 7.133c.55 0 .992.445.992.992v8.93c0 .55-.441.992-.992.992a.991.991 0 0 1-.992-.992v-8.93c0-.547.445-.992.992-.992zm0 0" fill="#7cb342"/><path d="M15.875 7.063c-.586 0-1.063.476-1.063 1.062v8.93c0 .59.477 1.062 1.063 1.062.59 0 1.063-.472 1.063-1.062v-8.93c0-.586-.473-1.063-1.063-1.063zm0 .14c.512 0 .922.41.922.922v8.93c0 .511-.41.922-.922.922a.919.919 0 0 1-.922-.922v-8.93c0-.512.41-.922.922-.922zm0 0" fill="#212121"/></svg>
